dist/img/icons/viber.svg

<svg width="40" height="41" viewBox="0 0 40 41" fill="none" xmlns="http://www.w3.org/2000/svg">
<g id="Viber">
<g id="Viber_2">
<g id="Group">
<path id="Vector" d="M31.7535 9.17868C30.9596 8.44882 27.7456 6.11196 20.5814 6.07995C20.5814 6.07995 12.1367 5.56776 8.02002 9.34514C5.72798 11.6372 4.92129 14.9856 4.83806 19.1471C4.75483 23.3022 4.64599 31.0939 12.1559 33.2067H12.1623L12.1559 36.427C12.1559 36.427 12.1111 37.7331 12.969 37.9956C14.0062 38.3157 14.6208 37.3234 15.6132 36.2542C16.1574 35.6652 16.9065 34.8073 17.4763 34.1478C22.611 34.5768 26.5612 33.5908 27.0094 33.4436C28.0465 33.1042 33.9175 32.3552 34.8714 24.5635C35.8574 16.5478 34.3913 11.4707 31.7535 9.17868ZM32.6242 24.0001C31.8175 30.5049 27.0606 30.9146 26.1835 31.1963C25.8121 31.318 22.3421 32.1823 17.9757 31.8942C17.9757 31.8942 14.7233 35.8188 13.7117 36.8368C13.5516 36.9969 13.366 37.0609 13.2443 37.0289C13.0715 36.9841 13.0202 36.7792 13.0267 36.4783C13.0267 36.0429 13.0523 31.1195 13.0523 31.1195C13.0459 31.1195 13.0459 31.1195 13.0523 31.1195C6.69474 29.3589 7.06607 22.726 7.1365 19.256C7.20692 15.7859 7.85996 12.9369 9.79987 11.0226C13.2763 7.87261 20.4534 8.33998 20.4534 8.33998C26.51 8.36559 29.4102 10.1903 30.0825 10.7985C32.3169 12.7192 33.4565 17.2969 32.6242 24.0001Z" fill="#F8F8FF"/>
<path id="Vector_2" d="M23.5331 19.3776C23.3218 19.3776 23.1425 19.2112 23.1297 18.9935C23.0593 17.617 22.4127 16.9447 21.0938 16.8743C20.8697 16.8615 20.6968 16.6694 20.7097 16.4454C20.7225 16.2213 20.9145 16.0484 21.1386 16.0612C22.88 16.1572 23.8532 17.156 23.9428 18.9487C23.9556 19.1728 23.7828 19.3648 23.5587 19.3712C23.5459 19.3776 23.5395 19.3776 23.5331 19.3776Z" fill="#F8F8FF"/>
<path id="Vector_3" d="M25.6072 20.0692H25.6008C25.3767 20.0628 25.1974 19.8771 25.2038 19.653C25.2359 18.2701 24.8389 17.1497 23.9938 16.2278C23.1551 15.3058 21.9963 14.8064 20.4661 14.6976C20.242 14.6784 20.0756 14.4863 20.0948 14.2622C20.114 14.0382 20.306 13.8717 20.5301 13.8909C22.2588 14.019 23.6225 14.6208 24.5956 15.6836C25.5752 16.7528 26.0489 18.0908 26.0169 19.6722C26.0105 19.8963 25.8249 20.0692 25.6072 20.0692Z" fill="#F8F8FF"/>
<path id="Vector_4" d="M27.733 20.9013C27.5089 20.9013 27.3296 20.722 27.3296 20.4979C27.3104 18.0202 26.5998 16.1315 25.1528 14.7166C23.7251 13.3209 21.9133 12.6103 19.7813 12.5911C19.5572 12.5911 19.3779 12.4054 19.3779 12.1813C19.3779 11.9572 19.5636 11.778 19.7813 11.778C22.1309 11.7972 24.1285 12.5846 25.7098 14.134C27.2976 15.6834 28.1107 17.8218 28.1363 20.4851C28.1427 20.7156 27.9635 20.9013 27.733 20.9013C27.7394 20.9013 27.7394 20.9013 27.733 20.9013Z" fill="#F8F8FF"/>
<path id="Vector_5" d="M21.1897 24.3906C21.1897 24.3906 21.7595 24.4418 22.0668 24.0641L22.6622 23.315C22.9503 22.9437 23.6482 22.7068 24.3268 23.0845C24.7046 23.2958 25.3896 23.7183 25.8122 24.0321C26.2667 24.365 27.1887 25.1333 27.1951 25.1397C27.6368 25.511 27.7393 26.0552 27.4384 26.6378C27.4384 26.6378 27.4384 26.6442 27.4384 26.6506C27.131 27.1948 26.7149 27.707 26.1963 28.1808C26.1899 28.1808 26.1899 28.1872 26.1835 28.1872C25.7545 28.5457 25.332 28.7506 24.9222 28.7954C24.871 28.8082 24.8134 28.8082 24.7366 28.8082C24.5573 28.8082 24.378 28.7826 24.1988 28.725L24.186 28.7058C23.5457 28.5265 22.4829 28.0783 20.7159 27.0988C19.5635 26.4649 18.6095 25.8183 17.7964 25.1717C17.3675 24.8323 16.9321 24.4546 16.484 24.0064C16.4711 23.9936 16.4519 23.9744 16.4391 23.9616C16.4263 23.9488 16.4071 23.9296 16.3943 23.9168C16.3815 23.904 16.3623 23.8848 16.3495 23.872C16.3367 23.8592 16.3175 23.84 16.3047 23.8272C15.8629 23.379 15.4788 22.9437 15.1395 22.5147C14.4928 21.708 13.8462 20.7477 13.2124 19.5952C12.2328 17.8218 11.7846 16.759 11.6054 16.1252L11.5862 16.1124C11.5285 15.9331 11.5029 15.7538 11.5029 15.5746C11.5029 15.4977 11.5029 15.4401 11.5157 15.3889C11.567 14.9727 11.7718 14.5566 12.124 14.1276C12.124 14.1212 12.1304 14.1212 12.1304 14.1148C12.6041 13.5898 13.1163 13.1801 13.6605 12.8728C13.6605 12.8728 13.6669 12.8728 13.6733 12.8728C14.2495 12.5719 14.7937 12.6743 15.1715 13.1161C15.1715 13.1161 15.9462 14.0444 16.2791 14.499C16.5928 14.9279 17.0153 15.6066 17.2266 15.9843C17.6044 16.663 17.3675 17.3608 16.9961 17.6489L16.2471 18.2443C15.8693 18.5517 15.9205 19.1215 15.9205 19.1215C15.9205 19.1215 17.0282 23.3342 21.1897 24.3906Z" fill="#F8F8FF"/>
</g>
</g>
</g>
</svg>

<svg width="40" height="41" fill="none" xmlns="http://www.w3.org/2000/svg"><g fill="#F8F8FF"><path d="M31.753 9.179c-.793-.73-4.007-3.067-11.172-3.099 0 0-8.444-.512-12.561 3.265-2.292 2.292-3.099 5.64-3.182 9.802-.083 4.155-.192 11.947 7.318 14.06h.006l-.006 3.22s-.045 1.306.813 1.569c1.037.32 1.652-.673 2.644-1.742a95.714 95.714 0 001.863-2.106c5.135.429 9.085-.557 9.533-.704 1.038-.34 6.908-1.089 7.862-8.88.986-8.016-.48-13.093-3.118-15.385zM32.624 24c-.807 6.505-5.563 6.915-6.44 7.196-.372.122-3.842.986-8.208.698 0 0-3.253 3.925-4.264 4.943-.16.16-.346.224-.468.192-.172-.045-.224-.25-.217-.55 0-.436.025-5.36.025-5.36-.006 0-.006 0 0 0-6.357-1.76-5.986-8.393-5.915-11.863.07-3.47.723-6.32 2.663-8.233 3.476-3.15 10.653-2.683 10.653-2.683 6.057.026 8.957 1.85 9.63 2.459 2.234 1.92 3.373 6.498 2.541 13.201z"/><path d="M23.533 19.378a.406.406 0 01-.403-.384c-.07-1.377-.717-2.05-2.036-2.12a.408.408 0 01.045-.813c1.741.096 2.714 1.095 2.804 2.888a.398.398 0 01-.384.422c-.013.007-.02.007-.026.007z"/><path d="M25.607 20.07h-.006a.407.407 0 01-.397-.417c.032-1.383-.365-2.503-1.21-3.425-.839-.922-1.998-1.422-3.528-1.53a.403.403 0 01-.371-.436.403.403 0 01.435-.371c1.729.128 3.092.73 4.066 1.793.98 1.069 1.453 2.407 1.42 3.988a.41.41 0 01-.409.397z"/><path d="M27.733 20.901a.402.402 0 01-.403-.403c-.02-2.478-.73-4.367-2.177-5.781-1.428-1.396-3.24-2.107-5.372-2.126a.407.407 0 010-.813c2.35.02 4.348.807 5.929 2.356 1.588 1.55 2.4 3.688 2.426 6.351a.4.4 0 01-.403.416c.006 0 .006 0 0 0zM21.19 24.39s.57.052.877-.326l.595-.749c.288-.371.986-.608 1.665-.23a16.59 16.59 0 011.485.947 39.115 39.115 0 011.383 1.108c.442.371.544.915.243 1.498v.013a6.248 6.248 0 01-1.242 1.53c-.006 0-.006.006-.013.006-.428.359-.851.564-1.26.608-.052.013-.11.013-.186.013a1.73 1.73 0 01-.538-.083l-.013-.02c-.64-.178-1.703-.627-3.47-1.606a20.617 20.617 0 01-2.92-1.927c-.428-.34-.864-.717-1.312-1.166l-.045-.044-.045-.045-.044-.045-.045-.045a16.06 16.06 0 01-1.165-1.312 20.232 20.232 0 01-1.928-2.92c-.98-1.773-1.427-2.836-1.607-3.47l-.019-.013a1.742 1.742 0 01-.083-.537c0-.077 0-.135.013-.186.051-.416.256-.832.608-1.261 0-.007.006-.007.006-.013a6.099 6.099 0 011.53-1.242h.013c.576-.301 1.12-.199 1.498.243 0 0 .775.928 1.108 1.383.314.429.736 1.108.948 1.485.377.679.14 1.377-.23 1.665l-.75.595c-.378.308-.326.878-.326.878s1.107 4.212 5.269 5.269z"/></g></svg>
